assets/icons/notifydark.svg

<svg width="24" height="24" viewBox="0 0 24 24" fill="none" xmlns="http://www.w3.org/2000/svg">
<path d="M12 6.43994V9.76994" stroke="#F2F4F6" stroke-width="1.5" stroke-miterlimit="10" stroke-linecap="round"/>
<path d="M12.0199 2C8.3399 2 5.3599 4.98 5.3599 8.66V10.76C5.3599 11.44 5.0799 12.46 4.7299 13.04L3.4599 15.16C2.6799 16.47 3.2199 17.93 4.6599 18.41C9.4399 20 14.6099 20 19.3899 18.41C20.7399 17.96 21.3199 16.38 20.5899 15.16L19.3199 13.04C18.9699 12.46 18.6899 11.43 18.6899 10.76V8.66C18.6799 5 15.6799 2 12.0199 2Z" stroke="#F2F4F6" stroke-width="1.5" stroke-miterlimit="10" stroke-linecap="round"/>
<path d="M15.3299 18.8198C15.3299 20.6498 13.8299 22.1498 11.9999 22.1498C11.0899 22.1498 10.2499 21.7698 9.64992 21.1698C9.04992 20.5698 8.66992 19.7298 8.66992 18.8198" stroke="#F2F4F6" stroke-width="1.5" stroke-miterlimit="10"/>
</svg>

<svg width="24" height="24" viewBox="0 0 24 24" fill="none" xmlns="http://www.w3.org/2000/svg"><path d="M12 6.44v3.33M12.02 2a6.66 6.66 0 0 0-6.66 6.66v2.1c0 .68-.28 1.7-.63 2.28l-1.27 2.12c-.78 1.31-.24 2.77 1.2 3.25a23.3 23.3 0 0 0 14.73 0 2.22 2.22 0 0 0 1.2-3.25l-1.27-2.12a5 5 0 0 1-.63-2.28v-2.1A6.7 6.7 0 0 0 12.02 2Z" stroke="#F2F4F6" stroke-width="1.5" stroke-miterlimit="10" stroke-linecap="round"/><path d="M15.33 18.82c0 1.83-1.5 3.33-3.33 3.33a3.34 3.34 0 0 1-3.33-3.33" stroke="#F2F4F6" stroke-width="1.5" stroke-miterlimit="10"/></svg>
